X: 5509
T: Buntata 's Sgadan
R: reel
M: 4/4
K: Gmajor
G3D Bdgd|e2 gd BAAB|G3B dGBd|e2 gd BGGD|
G3D Bdgd|e2 gd BAAB|G3B dGBd|e2 gd BG G2||
e2 Be deBd|e2 gd BAAd|e2 Be deBd|e2 gd BGGd|
e2 Be deBd|e2 gd BAAB|G3B dGBd|e2 gd BG G2||

